X:11
T:Shoshanna's Lullaby
C:Ian Lyons
M:6/4
Q:1/4=56
K:D
e4 | {/g}ed {/gcd}c2-c2 {/g}c{/d}A{/GdG}B2-B2| {/g}ce{/g}f2-fa f/2{/g}e3/2 {/gfg}f2{/g}e2-|ed{/gcd}c2{/e}A2-AB {/g}ce {/Gdc}d2-|dc{/gBd}B2-B2{/g}c{/d}A{/GdG}B2-B2|!
{/g}ed{/gcd}c2-ce {/g}c{/d}A {/Gdc}d2 {/g}c2- | cd{/gef}e2-e2 ae {/gfg} f2-f2| {/g}ed {/gcd}c2{/e}A2{/g}ce{/Gdc}d2-dB | {/g}G{/d}B{/g}A2-A2{/GAG}A2{/d}A2-A2 ||!
{/g}fg {/ag}a2-a2 {/g}ae {/g}f2-f2| a2 e2-ef {/g}eB {/GdG}c2-c2 | {/g}cB {/g}A2{/GAG}A2{/g}AB {/g}ce {/Gdc}d2-|dc{/gBd}B2-B2{/g}c{/d}A{/GdG}B2-B2|!
{/g}ed{/gcd}c2-ce {/g}c{/d}A {/Gdc}d2 {/g}c2- | cd{/gef}e2-e2 ae {/gfg} f2-f2| {/g}ed {/gcd}c2{/e}A2{/g}ce{/Gdc}d2-dB | {/g}G{/d}B{/g}A2-A2{/GAG}A2{/d}A2-A2 |]!

